package/converter/svg/regular/square-phone-flip.svg

<svg xmlns="http://www.w3.org/2000/svg" viewBox="0 0 448 512"><!-- Font Awesome Pro 6.0.0-alpha2 by @fontawesome - https://fontawesome.com License - https://fontawesome.com/license (Commercial License) --><path d="M339.893 140.031L289.516 128.406C282.172 126.703 274.633 130.516 271.586 137.469L248.32 191.75C245.602 198.141 247.438 205.578 252.813 209.969L279.727 232.018C262.734 266.627 234.586 294.768 199.961 311.768L177.938 284.861C173.594 279.471 166.086 277.611 159.695 280.377L105.451 303.627C98.498 306.627 94.709 314.205 96.396 321.502L108.021 371.893C109.654 379.018 115.922 384.002 123.258 384.002C249.383 384.002 352.002 281.393 352.002 155.25C352.002 147.922 347.018 141.656 339.893 140.031ZM384 32H64C28.654 32 0 60.656 0 96V416C0 451.344 28.654 480 64 480H384C419.346 480 448 451.344 448 416V96C448 60.656 419.346 32 384 32ZM400 416C400 424.82 392.822 432 384 432H64C55.178 432 48 424.82 48 416V96C48 87.18 55.178 80 64 80H384C392.822 80 400 87.18 400 96V416Z"/></svg>

<svg xmlns="http://www.w3.org/2000/svg" viewBox="0 0 448 512"><!--! Font Awesome Pro 6.6.0 by @fontawesome - https://fontawesome.com License - https://fontawesome.com/license (Commercial License) Copyright 2024 Fonticons, Inc. --><path d="M384 80c8.8 0 16 7.2 16 16l0 320c0 8.8-7.2 16-16 16L64 432c-8.8 0-16-7.2-16-16L48 96c0-8.8 7.2-16 16-16l320 0zm64 16c0-35.3-28.7-64-64-64L64 32C28.7 32 0 60.7 0 96L0 416c0 35.3 28.7 64 64 64l320 0c35.3 0 64-28.7 64-64l0-320zM293.3 128.7c-9.7-2.6-19.9 2.3-23.7 11.6l-20 48c-3.4 8.2-1 17.6 5.8 23.2L280 231.7c-16.6 35.2-45.1 63.7-80.3 80.3l-20.2-24.7c-5.6-6.8-15-9.2-23.2-5.8l-48 20c-9.3 3.9-14.2 14-11.6 23.7l12 44C111.1 378 119 384 128 384c123.7 0 224-100.3 224-224c0-9-6-16.9-14.7-19.3l-44-12z"/></svg>
